X: 25
T:Jackie Coleman's
M:C|
R:reel
K:D
|:AF~F2 EFDE|F2AF BFAF|E2BE dEBE|ABde fedB|
AF~F2 EFDE|F2AF BFAF|E2BE dEBE|1 ABde fedB:|2 ABde fdde||
|:fddc d2de|fddc dfaf|eA~A2 eAfA|eA~A2 cdeg|
fddc d2de|fddc dfaf|~g3f gbag|1 ~f2eg fede:|2 ~f2eg fedB||

